Numix-Light/22/status/teamviewer-indicator-connected.svg

<?xml version="1.0" encoding="UTF-8" standalone="no"?>
<svg
   xmlns:dc="http://purl.org/dc/elements/1.1/"
   xmlns:cc="http://creativecommons.org/ns#"
   xmlns:rdf="http://www.w3.org/1999/02/22-rdf-syntax-ns#"
   xmlns:svg="http://www.w3.org/2000/svg"
   xmlns="http://www.w3.org/2000/svg"
   xmlns:sodipodi="http://sodipodi.sourceforge.net/DTD/sodipodi-0.dtd"
   xmlns:inkscape="http://www.inkscape.org/namespaces/inkscape"
   width="22"
   viewBox="0 0 6.208889 6.208889"
   height="22"
   id="svg2"
   version="1.1"
   inkscape:version="0.91 r"
   sodipodi:docname="teamviewer-indicator-connected.svg">
  <metadata
     id="metadata12">
    <rdf:RDF>
      <cc:Work
         rdf:about="">
        <dc:format>image/svg+xml</dc:format>
        <dc:type
           rdf:resource="http://purl.org/dc/dcmitype/StillImage" />
        <dc:title></dc:title>
      </cc:Work>
    </rdf:RDF>
  </metadata>
  <sodipodi:namedview
     pagecolor="#ffffff"
     bordercolor="#666666"
     borderopacity="1"
     objecttolerance="10"
     gridtolerance="10"
     guidetolerance="10"
     inkscape:pageopacity="0"
     inkscape:pageshadow="2"
     inkscape:window-width="1920"
     inkscape:window-height="1056"
     id="namedview10"
     showgrid="true"
     inkscape:zoom="22.627417"
     inkscape:cx="4.0645633"
     inkscape:cy="2.1934945"
     inkscape:window-x="0"
     inkscape:window-y="24"
     inkscape:window-maximized="1"
     inkscape:current-layer="svg2">
    <inkscape:grid
       type="xygrid"
       id="grid3815" />
  </sodipodi:namedview>
  <defs
     id="defs4" />
  <path
     style="fill:#353535;fill-opacity:1;fill-rule:evenodd;stroke:none;stroke-width:0.28222221px;stroke-linecap:butt;stroke-linejoin:miter;stroke-opacity:1"
     d="m 1.4111111,3.1044445 0.8466667,-0.8466667 0,0.5644444 1.6933333,0 0,-0.5644444 0.8466666,0.8466666 -0.8466666,0.8466668 0,-0.5644445 -1.6933333,0 0,0.5644444 z"
     id="path4136"
     inkscape:connector-curvature="0"
     sodipodi:nodetypes="ccccccccccc" />
  <g
     style="stroke:none;stroke-width:1.5998292;stroke-miterlimit:4;stroke-dasharray:none;stroke-opacity:1"
     transform="matrix(0.2494782,-0.2494782,-0.2494782,-0.2494782,34.545352,89.92799)"
     id="g4150" />
  <path
     sodipodi:nodetypes="ccccccc"
     inkscape:connector-curvature="0"
     style="fill:#353535;fill-opacity:1;fill-rule:nonzero;stroke:none;stroke-width:2.9996798;stroke-miterlimit:4;stroke-dasharray:none;stroke-opacity:1"
     d="M 5.59896,3.5992011 5.9980827,3.9983237 4.2020314,5.794375 3.1044445,4.6967881 3.503567,4.2976655 4.2020314,4.9961299 Z"
     id="path4158" />
  <path
     style="color:#000000;font-style:normal;font-variant:normal;font-weight:normal;font-stretch:normal;font-size:medium;line-height:normal;font-family:sans-serif;text-indent:0;text-align:start;text-decoration:none;text-decoration-line:none;text-decoration-style:solid;text-decoration-color:#000000;letter-spacing:normal;word-spacing:normal;text-transform:none;direction:ltr;block-progression:tb;writing-mode:lr-tb;baseline-shift:baseline;text-anchor:start;white-space:normal;clip-rule:nonzero;display:inline;overflow:visible;visibility:visible;opacity:1;isolation:auto;mix-blend-mode:normal;color-interpolation:sRGB;color-interpolation-filters:linearRGB;solid-color:#000000;solid-opacity:1;fill:#353535;fill-opacity:1;fill-rule:nonzero;stroke:none;stroke-width:0.56444442;stroke-linecap:butt;stroke-linejoin:miter;stroke-miterlimit:4;stroke-dasharray:none;stroke-dashoffset:0;stroke-opacity:1;color-rendering:auto;image-rendering:auto;shape-rendering:auto;text-rendering:auto;enable-background:accumulate"
     d="M 10.996094 2 C 6.0373755 2 2 6.0373755 2 10.996094 C 2 15.954812 6.0373755 20 10.996094 20 C 11.388781 20 11.772673 19.965194 12.152344 19.916016 L 10.185547 17.951172 C 6.6936294 17.55049 4.0000003 14.59902 4 10.996094 C 4 7.1182556 7.1182556 4.0000004 10.996094 4 C 14.873932 4 18 7.1182556 18 10.996094 C 18 11.579883 17.920693 12.143948 17.787109 12.685547 L 18.775391 11.695312 L 19.841797 10.630859 L 19.988281 10.777344 C 19.870259 5.9201912 15.880949 2 10.996094 2 z "
     transform="scale(0.28222222,0.28222222)"
     id="path4137" />
</svg>

<svg xmlns="http://www.w3.org/2000/svg" width="22" viewBox="0 0 6.208889 6.208889" height="22">
 <path d="m 1.411 3.104 0.847 -0.847 0 0.564 1.693 0 0 -0.564 0.847 0.847 -0.847 0.847 0 -0.564 -1.693 0 0 0.564 z" style="fill:#353535;fill-opacity:1;stroke:none;fill-rule:evenodd"/>
 <path d="m 5.599 3.599 0.399 0.399 -1.796 1.796 -1.098 -1.098 0.399 -0.399 0.698 0.698" style="fill:#353535;fill-opacity:1;stroke:none;fill-rule:nonzero"/>
 <path d="m 10.996 2 c -4.959 0 -8.996 4.04 -8.996 8.996 c 0 4.959 4.04 9 8.996 9 c 0.393 0 0.777 -0.035 1.156 -0.084 l -1.967 -1.965 c -3.492 -0.401 -6.186 -3.352 -6.186 -6.955 c 0 -3.878 3.118 -6.996 6.996 -6.996 c 3.878 0 7 3.118 7 6.996 c 0 0.584 -0.079 1.148 -0.213 1.689 l 0.988 -0.99 l 1.066 -1.064 l 0.146 0.146 c -0.118 -4.857 -4.107 -8.777 -8.992 -8.777 z" transform="scale(0.28222222,0.28222222)" mix-blend-mode="normal" isolation="auto" white-space="normal" solid-opacity="1" solid-color="#000000" style="visibility:visible;shape-rendering:auto;color-interpolation-filters:linearRGB;fill:#353535;opacity:1;image-rendering:auto;fill-opacity:1;stroke:none;display:inline;color:#000;fill-rule:nonzero;color-rendering:auto;color-interpolation:sRGB"/>
</svg>
